src/images/grat-icon-tel.svg

<svg width="37" height="37" viewBox="0 0 37 37" fill="none" xmlns="http://www.w3.org/2000/svg">
<path d="M18.5 37C28.7173 37 37 28.7173 37 18.5C37 8.28273 28.7173 0 18.5 0C8.28273 0 0 8.28273 0 18.5C0 28.7173 8.28273 37 18.5 37Z" fill="url(#paint0_linear_332_866)"/>
<path d="M15.1083 26.9792C14.5089 26.9792 14.6108 26.7529 14.4041 26.1822L12.6416 20.3818L26.2083 12.3334" fill="#C8DAEA"/>
<path d="M15.1084 26.9791C15.5709 26.9791 15.7752 26.7676 16.0334 26.5166L18.5001 24.1181L15.4232 22.2627" fill="#A9C9DD"/>
<path d="M15.4232 22.2632L22.8787 27.7714C23.7295 28.2409 24.3435 27.9978 24.5554 26.9816L27.5902 12.6806C27.9009 11.4349 27.1153 10.8699 26.3014 11.2394L8.4813 18.1108C7.26491 18.5987 7.27201 19.2773 8.25958 19.5797L12.8326 21.007L23.4197 14.3277C23.9195 14.0247 24.3782 14.1876 24.0017 14.5217" fill="url(#paint1_linear_332_866)"/>
<defs>
<linearGradient id="paint0_linear_332_866" x1="13.8768" y1="1.5429" x2="4.62685" y2="23.125" gradientUnits="userSpaceOnUse">
<stop stop-color="#37AEE2"/>
<stop offset="1" stop-color="#1E96C8"/>
</linearGradient>
<linearGradient id="paint1_linear_332_866" x1="16.1845" y1="19.6364" x2="18.1612" y2="26.0304" gradientUnits="userSpaceOnUse">
<stop stop-color="#EFF7FC"/>
<stop offset="1" stop-color="white"/>
</linearGradient>
</defs>
</svg>

<svg xmlns="http://www.w3.org/2000/svg" width="37" height="37" fill="none"><path fill="url(#a)" d="M18.5 37C28.717 37 37 28.717 37 18.5S28.717 0 18.5 0 0 8.283 0 18.5 8.283 37 18.5 37Z"/><path fill="#C8DAEA" d="M15.108 26.98c-.6 0-.497-.227-.704-.798l-1.762-5.8 13.566-8.049"/><path fill="#A9C9DD" d="M15.108 26.98c.463 0 .667-.212.925-.463l2.467-2.399-3.077-1.855"/><path fill="url(#b)" d="m15.423 22.263 7.456 5.508c.85.47 1.464.227 1.676-.79l3.035-14.3c.31-1.246-.475-1.811-1.289-1.442l-17.82 6.872c-1.216.488-1.209 1.166-.221 1.469l4.573 1.427 10.587-6.68c.5-.302.958-.14.582.195"/><defs><linearGradient id="a" x1="13.877" x2="4.627" y1="1.543" y2="23.125" gradientUnits="userSpaceOnUse"><stop stop-color="#37AEE2"/><stop offset="1" stop-color="#1E96C8"/></linearGradient><linearGradient id="b" x1="16.184" x2="18.161" y1="19.636" y2="26.03" gradientUnits="userSpaceOnUse"><stop stop-color="#EFF7FC"/><stop offset="1" stop-color="#fff"/></linearGradient></defs></svg>
